public/svg/key-info-writer.svg

<svg width="69" height="75" viewBox="0 0 69 75" fill="none" xmlns="http://www.w3.org/2000/svg">
<path d="M62.3272 53.5837V71.7773H6.42969V53.5837C6.42969 52.6938 3.20703 52.6938 3.20703 53.5837V73.3887C3.20703 74.2786 3.92847 75 4.81836 75H63.9386C64.8285 75 65.5499 74.2786 65.5499 73.3887V53.5837C65.5499 52.6938 62.3272 52.6938 62.3272 53.5837Z" fill="black"/>
<path d="M21.5764 64.7339H47.1806C48.0705 64.7339 48.7919 64.0125 48.7919 63.1226C48.7919 62.2327 48.0705 61.5112 47.1806 61.5112H21.5764C20.6865 61.5112 19.9651 62.2327 19.9651 63.1226C19.9651 64.0125 20.6865 64.7339 21.5764 64.7339Z" fill="black"/>
<path d="M67.1458 43.541H62.8064V33.8992C62.8064 33.4293 62.6013 32.9828 62.2446 32.6767L59.8976 30.6618C60.3004 29.828 60.5263 28.8933 60.5263 27.9068C60.5263 24.4031 57.6765 21.5525 54.1734 21.5525C50.6706 21.5525 47.8207 24.4031 47.8207 27.9068C47.8207 31.4106 50.6706 34.2612 54.1734 34.2612C55.5243 34.2612 56.7779 33.8373 57.8086 33.1154L59.5838 34.6396V43.541H52.6667C52.3187 37.969 47.6761 33.5424 42.0195 33.5424H39.5246V32.1668C42.9826 30.5162 45.5427 27.2535 46.1997 23.3263C47.8972 22.7292 49.1171 21.1114 49.1171 19.2143C49.1171 17.4432 48.0536 15.9155 46.5311 15.2346C46.7539 14.2368 47.1557 12.381 47.2544 11.5447C47.6083 8.5501 46.841 5.87837 45.0355 3.81836C42.6374 1.08262 38.9593 0.0248577 37.2044 0.000834282C33.5433 -0.047945 30.9631 2.05352 29.7192 3.36192C27.2593 2.57398 23.4337 2.45035 21.1633 6.03995C18.939 9.55674 20.6372 13.4841 21.7997 15.4542C20.5087 16.2118 19.6402 17.6135 19.6402 19.2142C19.6402 21.1113 20.8601 22.7291 22.5576 23.3261C23.2146 27.2534 25.7748 30.516 29.2327 32.1666V33.5422H26.7372C21.0807 33.5422 16.4383 37.969 16.0906 43.5408H9.17344V34.6394L10.9487 33.1152C11.9793 33.837 13.233 34.261 14.5837 34.261C18.0866 34.261 20.9364 31.4105 20.9364 27.9067C20.9364 24.4029 18.0866 21.5523 14.5837 21.5523C11.0807 21.5523 8.23081 24.4029 8.23081 27.9067C8.23081 28.8931 8.45669 29.8277 8.85938 30.6615L6.5124 32.6767C6.15586 32.9827 5.95078 33.4293 5.95078 33.8992V43.541H1.61133C0.721435 43.541 0 44.2624 0 45.1523V52.8565C0 53.7464 0.721435 54.4678 1.61133 54.4678H67.146C68.0358 54.4678 68.7573 53.7464 68.7573 52.8565V45.1523C68.7571 44.2624 68.0359 43.541 67.1458 43.541ZM51.0434 27.9068C51.0434 26.1799 52.4476 24.7752 54.1734 24.7752C55.8995 24.7752 57.3037 26.1801 57.3037 27.9068C57.3037 29.6336 55.8995 31.0385 54.1734 31.0385C52.4474 31.0385 51.0434 29.6336 51.0434 27.9068ZM14.5837 24.775C16.3096 24.775 17.7138 26.1799 17.7138 27.9067C17.7138 29.6335 16.3096 31.0384 14.5837 31.0384C12.8577 31.0384 11.4535 29.6335 11.4535 27.9067C11.4535 26.1799 12.8577 24.775 14.5837 24.775ZM23.8871 7.7626C24.6287 6.59014 25.6942 6.06075 27.1494 6.14263C28.4145 6.21441 29.4757 6.72622 29.4795 6.72813C30.1973 7.08731 31.0651 6.86993 31.5214 6.20972C31.5426 6.1794 33.6708 3.22261 37.079 3.22261C37.106 3.22261 37.1331 3.22276 37.16 3.2232C37.9893 3.23462 40.8215 3.90025 42.6119 5.94268C43.8161 7.31641 44.3013 9.07393 44.054 11.1665C44.0057 11.5749 43.8435 12.3987 43.6714 13.2158H37.21C35.4571 13.2158 33.7992 12.3662 32.7752 10.9429L31.9884 9.84971C31.6556 9.38726 31.1041 9.13516 30.5358 9.18614C29.9685 9.23726 29.4703 9.58414 29.2255 10.0986C28.3245 11.9922 26.3877 13.2158 24.2914 13.2158H24.2496C23.5078 11.7679 22.7606 9.54327 23.8871 7.7626ZM25.631 21.8642C25.5801 21.0131 24.8751 20.3488 24.0226 20.3488C24.0105 20.3488 23.9985 20.349 23.9865 20.3491C23.3654 20.3403 22.8628 19.8345 22.8628 19.2142C22.8628 18.5884 23.3744 18.0791 24.0031 18.0791C24.893 18.0791 25.6144 17.3576 25.6144 16.4677V16.3356C27.5971 16.0262 29.4146 15.0325 30.7482 13.5562C32.3848 15.3755 34.7379 16.4383 37.21 16.4383H43.1427V16.4677C43.1427 17.3576 43.8642 18.0791 44.7541 18.0791C45.3828 18.0791 45.8943 18.5882 45.8943 19.2142C45.8943 19.835 45.391 20.3409 44.7693 20.3493C44.7568 20.349 44.7445 20.3488 44.7346 20.3488C43.882 20.3488 43.1769 21.0131 43.1262 21.8642C42.8505 26.4862 39.0081 30.1069 34.3786 30.1069C29.7491 30.1069 25.9066 26.4862 25.631 21.8642ZM34.3786 33.3294C35.0325 33.3294 35.675 33.2765 36.3018 33.1749V35.1537C36.3018 35.7956 36.6771 36.3498 37.2202 36.6089L34.3786 38.3591L31.5369 36.6089C32.0801 36.3498 32.4554 35.7956 32.4554 35.1537V33.1749C33.0822 33.2765 33.7247 33.3294 34.3786 33.3294ZM25.7774 36.8266C25.8365 36.8759 25.8998 36.9218 25.9673 36.9632L33.5335 41.6233C33.7926 41.7829 34.0856 41.8627 34.3786 41.8627C34.6715 41.8627 34.9645 41.783 35.2236 41.6233L42.7898 36.9632C42.8572 36.9216 42.9205 36.8759 42.9795 36.8266C46.4142 37.2709 49.1224 40.0658 49.4348 43.5408H19.3223C19.6343 40.0658 22.3428 37.2709 25.7774 36.8266ZM65.5345 51.2452H3.22266V46.7636H65.5346L65.5345 51.2452Z" fill="#21558A"/>
<path d="M38.4019 22.841C39.2917 22.841 40.0132 22.1195 40.0132 21.2296V20.2261C40.0132 19.3362 39.2917 18.6147 38.4019 18.6147C37.512 18.6147 36.7905 19.3362 36.7905 20.2261V21.2296C36.7905 22.1195 37.512 22.841 38.4019 22.841Z" fill="#21558A"/>
<path d="M31.9666 21.2296V20.2261C31.9666 19.3362 31.2451 18.6147 30.3552 18.6147C29.4653 18.6147 28.7439 19.3362 28.7439 20.2261V21.2296C28.7439 22.1195 29.4653 22.841 30.3552 22.841C31.2451 22.841 31.9666 22.1195 31.9666 21.2296Z" fill="#21558A"/>
<path d="M37.2057 26.8926C37.8347 26.2632 37.8343 25.2429 37.2049 24.6139C36.5756 23.9849 35.5553 23.9852 34.926 24.6146C34.7291 24.8117 34.4993 24.8411 34.3798 24.8411C34.261 24.8411 34.0335 24.8121 33.8373 24.6185C33.2159 23.9893 32.2037 23.9796 31.5687 24.5974C30.9309 25.2179 30.9183 26.2395 31.5388 26.8772C31.5438 26.8824 31.5488 26.8875 31.5541 26.8926C32.3088 27.6479 33.3125 28.0638 34.3799 28.0638C35.4473 28.0638 36.4509 27.6479 37.2057 26.8926Z" fill="#21558A"/>
</svg>

<svg xmlns="http://www.w3.org/2000/svg" width="69" height="75" fill="none"><path fill="#000" d="M62.327 53.584v18.193H6.43V53.584c0-.89-3.223-.89-3.223 0v19.805c0 .89.721 1.611 1.611 1.611h59.12c.89 0 1.612-.721 1.612-1.611V53.584c0-.89-3.223-.89-3.223 0"/><path fill="#000" d="M21.576 64.734h25.605a1.611 1.611 0 1 0 0-3.223H21.576a1.611 1.611 0 0 0 0 3.223"/><path fill="#21558A" d="M67.146 43.541h-4.34v-9.642c0-.47-.205-.916-.561-1.222l-2.347-2.015a6.3 6.3 0 0 0 .628-2.755 6.36 6.36 0 0 0-6.353-6.355 6.36 6.36 0 0 0-6.352 6.355 6.36 6.36 0 0 0 6.352 6.354c1.351 0 2.605-.424 3.636-1.146l1.775 1.525v8.901h-6.917c-.348-5.572-4.99-9.999-10.647-9.999h-2.495v-1.375c3.458-1.65 6.018-4.914 6.675-8.84a4.37 4.37 0 0 0 2.917-4.113 4.36 4.36 0 0 0-2.586-3.98c.223-.997.625-2.853.723-3.69.354-2.994-.413-5.666-2.218-7.726C42.637 1.083 38.959.025 37.204.001c-3.66-.049-6.24 2.053-7.485 3.36-2.46-.787-6.285-.91-8.556 2.679-2.224 3.517-.526 7.444.637 9.414a4.36 4.36 0 0 0-2.16 3.76 4.37 4.37 0 0 0 2.918 4.112c.657 3.927 3.217 7.19 6.675 8.84v1.376h-2.496c-5.656 0-10.299 4.427-10.646 9.999H9.173v-8.902l1.776-1.524a6.3 6.3 0 0 0 3.635 1.146 6.36 6.36 0 0 0 6.352-6.354 6.36 6.36 0 0 0-6.352-6.355 6.36 6.36 0 0 0-6.353 6.355c0 .986.226 1.92.628 2.755l-2.347 2.015a1.61 1.61 0 0 0-.561 1.222v9.642H1.61c-.89 0-1.611.721-1.611 1.611v7.704c0 .89.721 1.612 1.611 1.612h65.535c.89 0 1.611-.722 1.611-1.612v-7.704c0-.89-.721-1.611-1.611-1.611M51.043 27.907a3.134 3.134 0 0 1 3.13-3.132 3.135 3.135 0 0 1 3.13 3.132 3.135 3.135 0 0 1-3.13 3.131 3.134 3.134 0 0 1-3.13-3.131m-36.46-3.132a3.134 3.134 0 0 1 3.13 3.132 3.134 3.134 0 0 1-3.13 3.131 3.135 3.135 0 0 1-3.13-3.131 3.135 3.135 0 0 1 3.13-3.132m9.304-17.012c.742-1.173 1.807-1.702 3.262-1.62a6.9 6.9 0 0 1 2.33.585c.718.36 1.586.142 2.042-.518.022-.03 2.15-2.987 5.558-2.987h.081c.83.012 3.662.677 5.452 2.72 1.204 1.373 1.69 3.13 1.442 5.224-.048.408-.21 1.232-.383 2.049H37.21c-1.753 0-3.41-.85-4.435-2.273l-.787-1.093a1.61 1.61 0 0 0-2.762.249 5.49 5.49 0 0 1-4.935 3.117h-.041c-.742-1.448-1.49-3.673-.363-5.453m1.744 14.101a1.61 1.61 0 0 0-1.608-1.515h-.037a1.14 1.14 0 0 1-1.123-1.135 1.14 1.14 0 0 1 1.14-1.135c.89 0 1.611-.721 1.611-1.611v-.132a8.76 8.76 0 0 0 5.134-2.78 8.71 8.71 0 0 0 6.462 2.882h5.933v.03c0 .89.721 1.611 1.611 1.611.629 0 1.14.51 1.14 1.135a1.14 1.14 0 0 1-1.16 1.135c-.852 0-1.557.664-1.608 1.515-.276 4.622-4.118 8.243-8.747 8.243-4.63 0-8.472-3.62-8.748-8.243m8.748 11.465q.982-.001 1.923-.154v1.979c0 .642.375 1.196.918 1.455l-2.841 1.75-2.842-1.75c.543-.26.918-.813.918-1.455v-1.98q.942.154 1.924.155m-8.602 3.498q.09.074.19.136l7.566 4.66a1.61 1.61 0 0 0 1.69 0l7.567-4.66q.1-.062.19-.136a7.46 7.46 0 0 1 6.455 6.714H19.322a7.46 7.46 0 0 1 6.455-6.714m39.757 14.418H3.223v-4.481h62.312z"/><path fill="#21558A" d="M38.402 22.841c.89 0 1.611-.722 1.611-1.611v-1.004a1.611 1.611 0 0 0-3.222 0v1.004c0 .89.721 1.611 1.61 1.611M31.967 21.23v-1.004a1.611 1.611 0 0 0-3.223 0v1.004a1.611 1.611 0 1 0 3.223 0M37.206 26.893a1.611 1.611 0 0 0-2.28-2.278.77.77 0 0 1-1.089.004 1.61 1.61 0 0 0-2.268-.022 1.613 1.613 0 0 0-.015 2.296 3.97 3.97 0 0 0 2.826 1.17 3.97 3.97 0 0 0 2.826-1.17"/></svg>
